static/assets/img/icons/theme/navigation/arrow-down.svg

<svg height="24" viewBox="0 0 24 24" width="24" xmlns="http://www.w3.org/2000/svg"><g fill="none" fill-rule="evenodd"><path d="m0 0h24v24h-24z" opacity="0"/><g fill="#000"><rect height="14" rx="1" width="2" x="11" y="5"/><path d="m6.70710678 18.7071068c-.39052429.3905243-1.02368927.3905243-1.41421356 0s-.39052429-1.0236893 0-1.4142136l5.99999998-6c.378579-.3785789.9881654-.3918245 1.3828314-.0300473l6 5.5c.407119.3731924.4346219 1.0057597.0614295 1.4128787s-1.0057597.4346219-1.4128787.0614295l-5.2941997-4.8530163z" fill-rule="nonzero" transform="matrix(1 0 0 -1 0 29.999998)"/></g></g></svg>

<svg width="24px" height="24px" viewBox="0 0 24 24" version="1.1" xmlns="http://www.w3.org/2000/svg" xmlns:xlink="http://www.w3.org/1999/xlink">
    <title>Icon For Arrow-down</title>
    <g stroke="none" stroke-width="1" fill="none" fill-rule="evenodd">
        <polygon points="0 0 24 0 24 24 0 24" opacity="0"></polygon>
        <rect fill="#000000" x="11" y="5" width="2" height="14" rx="1"></rect>
        <path d="M6.70710678,18.7071068 C6.31658249,19.0976311 5.68341751,19.0976311 5.29289322,18.7071068 C4.90236893,18.3165825 4.90236893,17.6834175 5.29289322,17.2928932 L11.2928932,11.2928932 C11.6714722,10.9143143 12.2810586,10.9010687 12.6757246,11.2628459 L18.6757246,16.7628459 C19.0828436,17.1360383 19.1103465,17.7686056 18.7371541,18.1757246 C18.3639617,18.5828436 17.7313944,18.6103465 17.3242754,18.2371541 L12.0300757,13.3841378 L6.70710678,18.7071068 Z" fill="#000000" fill-rule="nonzero" transform="translate(12.000003, 14.999999) scale(1, -1) translate(-12.000003, -14.999999) "></path>
    </g>
</svg>
